src/images/Docker.svg

<svg width="97" height="97" viewBox="0 0 97 97" fill="none" xmlns="http://www.w3.org/2000/svg">
<mask id="mask0_24_984" style="mask-type:alpha" maskUnits="userSpaceOnUse" x="0" y="11" width="97" height="75">
<g clip-path="url(#clip0_24_984)">
<path d="M94.8538 43.0183C94.5962 42.8126 92.1919 40.9868 87.1216 40.9868C85.7828 40.9927 84.4468 41.1081 83.1266 41.3322C82.1453 34.5673 76.5843 31.2691 76.335 31.1211L74.9735 30.3314L74.078 31.631C72.9566 33.3768 72.138 35.3012 71.6574 37.3226C70.7496 41.1842 71.3016 44.8112 73.252 47.912C70.8968 49.2321 67.1187 49.557 66.3541 49.5858H3.80199C2.16815 49.588 0.842361 50.9159 0.833457 52.559C0.760496 58.0704 1.68892 63.549 3.57301 68.7249C5.72781 74.4083 8.93357 78.5947 13.1043 81.1567C17.7779 84.0354 25.371 85.6803 33.9781 85.6803C37.8664 85.6926 41.7475 85.3387 45.5703 84.6235C50.8843 83.6421 55.9978 81.7741 60.6992 79.0963C64.573 76.8401 68.0595 73.9699 71.0237 70.596C75.9795 64.9537 78.9318 58.6699 81.1274 53.0854H82.0024C87.4284 53.0854 90.765 50.9016 92.605 49.0717C93.8278 47.9046 94.7824 46.4828 95.4018 44.9059L95.7903 43.7627L94.8538 43.0183Z" fill="#086DD7"/>
<path d="M9.60003 47.7435H17.9823C18.3866 47.7435 18.7142 47.4139 18.7142 47.0074V39.4981C18.7164 39.0915 18.3905 38.7601 17.9864 38.7578C17.9851 38.7578 17.9836 38.7578 17.9823 38.7578H9.60003C9.19576 38.7578 8.86816 39.0875 8.86816 39.4939V39.4981V47.0073C8.86816 47.4139 9.19576 47.7435 9.60003 47.7435Z" fill="#086DD7"/>
<path d="M21.1512 47.7435H29.5334C29.9377 47.7435 30.2653 47.4139 30.2653 47.0074V39.4981C30.2675 39.0915 29.9417 38.7601 29.5374 38.7578C29.5361 38.7578 29.5346 38.7578 29.5333 38.7578H21.151C20.7445 38.7578 20.415 39.0892 20.415 39.4981V47.0073C20.4174 47.4146 20.7462 47.7435 21.1512 47.7435Z" fill="#086DD7"/>
<path d="M32.878 47.7435H41.2603C41.6645 47.7435 41.9921 47.4139 41.9921 47.0074V39.4981C41.9944 39.0915 41.6685 38.7601 41.2642 38.7578C41.2629 38.7578 41.2614 38.7578 41.2601 38.7578H32.8779C32.4736 38.7578 32.146 39.0875 32.146 39.4939V39.4981V47.0073C32.1461 47.4139 32.4739 47.7435 32.878 47.7435Z" fill="#086DD7"/>
<path d="M44.4661 47.7435H52.8484C53.2533 47.7435 53.5821 47.4147 53.5844 47.0074V39.4981C53.5844 39.0892 53.2549 38.7578 52.8484 38.7578H44.4661C44.0618 38.7578 43.7343 39.0875 43.7343 39.4939V39.4981V47.0073C43.7343 47.4139 44.062 47.7435 44.4661 47.7435Z" fill="#086DD7"/>
<path d="M21.151 36.9402H29.5333C29.9381 36.9379 30.2651 36.6071 30.2651 36.2V28.6907C30.2651 28.2841 29.9374 27.9547 29.5333 27.9547H21.151C20.7462 27.9547 20.4173 28.2835 20.415 28.6907V36.2C20.4173 36.6079 20.7454 36.9379 21.151 36.9402Z" fill="#086DD7"/>
<path d="M32.8779 36.9402H41.2601C41.6649 36.9379 41.992 36.6071 41.992 36.2V28.6907C41.992 28.2841 41.6643 27.9547 41.2601 27.9547H32.8779C32.4736 27.9547 32.146 28.2843 32.146 28.6907V36.2C32.146 36.6071 32.4731 36.9379 32.8779 36.9402Z" fill="#086DD7"/>
<path d="M44.4661 36.9402H52.8484C53.254 36.9379 53.5821 36.6079 53.5844 36.2V28.6907C53.5821 28.2835 53.2533 27.9547 52.8484 27.9547H44.4661C44.0618 27.9547 43.7343 28.2843 43.7343 28.6907V36.2C43.7343 36.6071 44.0613 36.9379 44.4661 36.9402Z" fill="#086DD7"/>
<path d="M44.4661 26.1328H52.8484C53.2533 26.1328 53.5821 25.8039 53.5844 25.3967V17.8832C53.5821 17.476 53.2533 17.1472 52.8484 17.1472H44.4661C44.0618 17.1472 43.7343 17.4766 43.7343 17.8832V25.3966C43.7343 25.8032 44.062 26.1328 44.4661 26.1328Z" fill="#086DD7"/>
<path d="M56.1562 47.7435H64.5384C64.9434 47.7435 65.2722 47.4147 65.2744 47.0074V39.4981C65.2744 39.0892 64.945 38.7578 64.5384 38.7578H56.1562C55.752 38.7578 55.4243 39.0875 55.4243 39.4939V39.4981V47.0073C55.4243 47.4139 55.752 47.7435 56.1562 47.7435Z" fill="#086DD7"/>
</g>
</mask>
<g mask="url(#mask0_24_984)">
<rect x="0.34668" y="11.3194" width="96.8689" height="74.3612" fill="url(#paint0_linear_24_984)"/>
</g>
<defs>
<linearGradient id="paint0_linear_24_984" x1="19.5533" y1="75.2456" x2="69.3192" y2="17.1587" gradientUnits="userSpaceOnUse">
<stop offset="0.00833321" stop-color="#5C03BC"/>
<stop offset="0.53125" stop-color="#E536AB"/>
<stop offset="0.898958" stop-color="#F4E5F0"/>
</linearGradient>
<clipPath id="clip0_24_984">
<rect width="97" height="74.0866" fill="white" transform="translate(0 11.4639)"/>
</clipPath>
</defs>
</svg>

<svg xmlns="http://www.w3.org/2000/svg" width="97" height="97" fill="none"><mask id="b" width="97" height="75" x="0" y="11" maskUnits="userSpaceOnUse" style="mask-type:alpha"><g fill="#086DD7" clip-path="url(#a)"><path d="M94.854 43.018c-.258-.205-2.662-2.031-7.732-2.031a24.516 24.516 0 0 0-3.995.345c-.982-6.765-6.543-10.063-6.792-10.21l-1.361-.79-.896 1.299a18.41 18.41 0 0 0-2.42 5.692c-.908 3.861-.356 7.488 1.594 10.589-2.355 1.32-6.133 1.645-6.898 1.674H3.802a2.981 2.981 0 0 0-2.969 2.973 45.504 45.504 0 0 0 2.74 16.166c2.155 5.683 5.36 9.87 9.531 12.432 4.674 2.878 12.267 4.523 20.874 4.523a61.97 61.97 0 0 0 11.592-1.056 48.285 48.285 0 0 0 15.13-5.528 41.641 41.641 0 0 0 10.324-8.5c4.956-5.642 7.908-11.926 10.103-17.51h.875c5.426 0 8.763-2.184 10.603-4.014a11.642 11.642 0 0 0 2.797-4.166l.388-1.143-.936-.745Z"/><path d="M9.6 47.743h8.382c.405 0 .732-.33.732-.736v-7.509a.734.734 0 0 0-.728-.74H9.6a.734.734 0 0 0-.732.736V47.008c0 .406.328.735.732.735ZM21.151 47.743h8.382c.405 0 .732-.33.732-.736v-7.509a.734.734 0 0 0-.728-.74h-8.386a.738.738 0 0 0-.736.74v7.51a.738.738 0 0 0 .736.735ZM32.878 47.743h8.382c.404 0 .732-.33.732-.736v-7.509a.734.734 0 0 0-.728-.74h-8.386a.734.734 0 0 0-.732.736V47.008c0 .406.328.735.732.735ZM44.466 47.743h8.382a.738.738 0 0 0 .736-.736v-7.509c0-.409-.33-.74-.736-.74h-8.382a.734.734 0 0 0-.732.736V47.008c0 .406.328.735.732.735ZM21.151 36.94h8.382a.738.738 0 0 0 .732-.74v-7.51a.734.734 0 0 0-.732-.735h-8.382a.738.738 0 0 0-.736.736V36.2c.002.408.33.738.736.74ZM32.878 36.94h8.382a.738.738 0 0 0 .732-.74v-7.51a.734.734 0 0 0-.732-.735h-8.382a.734.734 0 0 0-.732.736V36.2c0 .407.327.738.732.74ZM44.466 36.94h8.382a.742.742 0 0 0 .736-.74v-7.51a.738.738 0 0 0-.736-.735h-8.382a.734.734 0 0 0-.732.736V36.2c0 .407.327.738.732.74ZM44.466 26.133h8.382a.738.738 0 0 0 .736-.736v-7.514a.738.738 0 0 0-.736-.736h-8.382a.734.734 0 0 0-.732.736v7.514c0 .406.328.736.732.736ZM56.156 47.743h8.382a.738.738 0 0 0 .736-.736v-7.509c0-.409-.329-.74-.736-.74h-8.382a.734.734 0 0 0-.732.736V47.008c0 .406.328.735.732.735Z"/></g></mask><g mask="url(#b)"><path fill="url(#c)" d="M.347 11.319h96.869V85.68H.347z"/></g><defs><linearGradient id="c" x1="19.553" x2="69.319" y1="75.246" y2="17.159" gradientUnits="userSpaceOnUse"><stop offset=".008" stop-color="#5C03BC"/><stop offset=".531" stop-color="#E536AB"/><stop offset=".899" stop-color="#F4E5F0"/></linearGradient><clipPath id="a"><path fill="#fff" d="M0 11.464h97V85.55H0z"/></clipPath></defs></svg>
